app/dist/common/images/cushman-and-wakefield.svg

<svg height="18" width="18" xmlns="http://www.w3.org/2000/svg"><path d="m0 0h18v18h-18z" fill="#eb0029"/><path d="m10 4v8h2v-6.302zm-2 .774v7.226h1v-8zm-2 7.226h1v-6.58l-1 .805zm7-4.28v4.28h2v-2.503zm-9 4.28h1v-4.28l-1 .78z" fill="#fff"/></svg>

<!-- by TradingView --><svg width="18" height="18" xmlns="http://www.w3.org/2000/svg"><path fill="#EB0029" d="M0 0h18v18H0z"/><path d="M10 4v8h2V5.698L10 4zm-2 .774V12h1V4l-1 .774zM6 12h1V5.42l-1 .805V12zm7-4.28V12h2V9.497L13 7.72zM4 12h1V7.72L4 8.5V12z" fill="#fff"/></svg>
